X:6009
T:French-Canadian Waltz
T:Louis Waltz
R:Waltz
C:Trad.
O:Canada
M:3/4
L:1/8
Q:1/4=120
K:D
A3/2G/|"D"F2 D>F A>d|f4 ef|"G"g>b b>g f>g|"Em"B3 d c>B|"A7"A>G E>F G>A|c2 B2 A2|"D"F2 E2 F>B|"A7"A4 A>G|
"D"F2 D>F A>d|f4 e>f|"G"g>b b>g f>g|"Em"B3 d c>B|"A7"A>G E>F G>A|c2 B2 c2|"D"d6|d4 c>B|
"A7"A2>A2 A2|c2 B2 A2|"D"F3 E FG|d2 c2 d2|"A7"e2>e2 e2|e2 A2 G2|"D"F6|"D7"F4 EF|
"G"G2>G2 G2|"A7"c2 B2 A2|"D"F3 E F2|"Bm"d2 c2 d2|"G"E2>D2 EF|"A7"G2 F2 E2|"D"D6|D4 z2|]

